X: 20643
T: NEIL GOW'S LAMENT FOR HIS BROTHER
Q: "Slow."
%R: air, waltz, jig
B: W. Hamilton "Universal Tune-Book" Vol. 2 Glasgow 1846 p.64 #3
S: http://s3-eu-west-1.amazonaws.com/itma.dl.printmaterial/book_pdfs/hamiltonvol2web.pdf
Z: 2016 John Chambers <jc:trillian.mit.edu>
M: 6/8
L: 1/8
K: G
% - - - - - - - - - - - - - - - - - - - - - - - - -
G/F/ |\
DGG GFG | AGA Afd |\
cAc fdf | cAF F2 (G/F/) |\
DGG G>FG | AGA Hg2 f/e/ |\
d>cB c>BA | d<BG G2 :|
d |\
gdg b>ag | fga Hb2 (a/g/) |\
f>ed cA (f/d/) | cAF F2d |\
gd (g/a/) b>ag | fga b2 a/g/ |\
f>=ed c<Ac | dBG G2d |
gdg b2 a/g/ | fga b2 a/g/ |\
f>=ed cA f/d/ | cAF F2 G/F/ |\
DGG G>FG | AGA Hg2 f/e/ |\
d>cB c>BA | dBG G2 |]
% - - - - - - - - - - - - - - - - - - - - - - - - -

%%sep 1 1 500
%%sep 1 1 500

